X:1
T:[ID 2-80]
T:[ID 2-80]
T:Bezeichnung standardisiert: Menuet [mit Trio] Men\"uet Con Trio 3.
T:Urheber unbekannt Datum in der hier transkribierten schriftlichen Quelle: 1767
C:Urheber unbekannt
C:Datum in der hier transkribierten schriftlichen Quelle: 1767
L:1/8
M:3/4
K:A
V:1 treble 
V:1
 c2 cAcd | e4 a2 | efedce |{d} c4 B2 | c2 cAcd | e4 a2 | efedcB |{B} A6 :: E2 EFGA | B2 G2 ef | %10
 e2 d2 c2 |{c} B6 | ed c3 e | f2 g2 a2 | (3fed dccB |{B} A6 :|[M:3/4]"^Trio" !fermata!cecABG | %17
 A2 ABcd | cecABG |{G} A4 d2 | (3fed dddd | (3edc cccc | d2 fedc |{c} B6 :: a2 g2 f2 | e2 efge | %26
 a2 g2 f2 |{f} e6 | d2 fd B2 | c2 ec A2 | (3agf edcB |{B} A6 :| %32

